icons/folder-open-fill.svg

<svg viewBox="0 0 24 24" fill="currentColor" xmlns="http://www.w3.org/2000/svg">
    <path d="M3 21C2.44772 21 2 20.5523 2 20V4C2 3.44772 2.44772 3 3 3H10.4142L12.4142 5H20C20.5523 5 21 5.44772 21 6V9H4V18.996L6 11H22.5L20.1894 20.2425C20.0781 20.6877 19.6781 21 19.2192 21H3Z"/>
</svg>

<svg xmlns="http://www.w3.org/2000/svg" viewBox="0 0 24 24">
    <g>
        <path fill="none" d="M0 0h24v24H0z"/>
        <path d="M3 21a1 1 0 0 1-1-1V4a1 1 0 0 1 1-1h7.414l2 2H20a1 1 0 0 1 1 1v3H4v9.996L6 11h16.5l-2.31 9.243a1 1 0 0 1-.97.757H3z"/>
    </g>
</svg>
